;FLAVOR:Marlin
;TIME:8480
;Filament used: 5.00681m
;Layer height: 0.2
;MINX:54.596
;MINY:67.714
;MINZ:0.2
;MAXX:165.468
;MAXY:152.287
;MAXZ:13.4
;Generated with Cura_SteamEngine 4.8.0
M140 S50
M105
M190 S50
M104 S200
M105
M109 S200
M82 ;absolute extrusion mode
M201 X500.00 Y500.00 Z100.00 E5000.00 ;Setup machine max acceleration
M203 X500.00 Y500.00 Z10.00 E50.00 ;Setup machine max feedrate
M204 P500.00 R1000.00 T500.00 ;Setup Print/Retract/Travel acceleration
M205 X8.00 Y8.00 Z0.40 E5.00 ;Setup Jerk
M220 S100 ;Reset Feedrate
M221 S100 ;Reset Flowrate

G28 ;Home
M420 S1 Z2 ;Enable ABL using saved Mesh and Fade Height

G92 E0 ;Reset Extruder
G1 Z2.0 F3000 ;Move Z Axis up
G1 X10.1 Y20 Z0.28 F5000.0 ;Move to start position
G1 X10.1 Y200.0 Z0.28 F1500.0 E15 ;Draw the first line
G1 X10.4 Y200.0 Z0.28 F5000.0 ;Move to side a little
G1 X10.4 Y20 Z0.28 F1500.0 E30 ;Draw the second line
G92 E0 ;Reset Extruder
G1 Z2.0 F3000 ;Move Z Axis up

G92 E0
G92 E0
G1 F2700 E-5
;LAYER_COUNT:67
;LAYER:0
M107
G0 F6000 X58.794 Y71.075 Z0.2
;TYPE:SKIRT
G1 F2700 E0
G1 F1200 X59.821 Y70.259 E0.04363
G1 X60.304 Y69.92 E0.06325
G1 X61.367 Y69.261 E0.10485
G1 X62.208 Y68.848 E0.13602
G1 X63.082 Y68.507 E0.16722
G1 X64.177 Y68.196 E0.20508
G1 X64.644 Y68.089 E0.22101
G1 X65.077 Y67.999 E0.23572
G1 X65.296 Y67.958 E0.24313
G1 X66.399 Y67.809 E0.28015
G1 X66.863 Y67.77 E0.29564
G1 X67.187 Y67.747 E0.30644
G1 X67.555 Y67.73 E0.3187
G1 X67.874 Y67.721 E0.32931
G1 X68.184 Y67.717 E0.33962
G1 X151.971 Y67.714 E3.12639
G1 X152.854 Y67.725 E3.15576
G1 X153.79 Y67.778 E3.18694
G1 X154.346 Y67.847 E3.20558
G1 X155.339 Y68.038 E3.23921
G1 X155.95 Y68.185 E3.26011
G1 X156.852 Y68.443 E3.29131
G1 X157.728 Y68.777 E3.3225
G1 X158.573 Y69.185 E3.35371
G1 X159.38 Y69.662 E3.38488
G1 X160.143 Y70.207 E3.41607
G1 X160.816 Y70.777 E3.4454
G1 X161.268 Y71.194 E3.46586
G1 X161.758 Y71.662 E3.4884
G1 X162.408 Y72.338 E3.51959
G1 X163.153 Y73.283 E3.55961
G1 X163.284 Y73.469 E3.56718
G1 X163.791 Y74.258 E3.59837
G1 X164.229 Y75.087 E3.62956
G1 X164.595 Y75.951 E3.66076
G1 X164.916 Y76.956 E3.69585
G1 X164.972 Y77.165 E3.70305
G1 X165.128 Y77.829 E3.72574
G1 X165.197 Y78.156 E3.73685
G1 X165.356 Y79.08 E3.76804
G1 X165.439 Y80.066 E3.80095
G1 X165.449 Y80.416 E3.81259
G1 X165.457 Y81.06 E3.83401
G1 X165.465 Y83.347 E3.91008
G1 X165.459 Y84.399 E3.94507
G1 X165.448 Y98.906 E4.42758
G1 X165.455 Y100.096 E4.46716
G1 X165.467 Y101.119 E4.50118
G1 X165.467 Y101.379 E4.50983
G1 X165.454 Y102.507 E4.54735
G1 X165.448 Y103.606 E4.5839
G1 X165.448 Y116.576 E5.01529
G1 X165.463 Y117.641 E5.05071
G1 X165.468 Y118.803 E5.08936
G1 X165.462 Y138.912 E5.75819
G1 X165.458 Y139.203 E5.76787
G1 X165.442 Y139.801 E5.78777
G1 X165.377 Y140.737 E5.81897
G1 X165.235 Y141.65 E5.8497
G1 X165.179 Y141.932 E5.85927
G1 X165.122 Y142.201 E5.86841
G1 X165.053 Y142.508 E5.87888
G1 X164.809 Y143.414 E5.91009
G1 X164.488 Y144.295 E5.94127
G1 X164.289 Y144.748 E5.95773
G1 X164.177 Y144.988 E5.96654
G1 X163.745 Y145.82 E5.99772
G1 X163.296 Y146.535 E6.0258
G1 X163.12 Y146.793 E6.03619
G1 X162.822 Y147.209 E6.05321
G1 X162.298 Y147.863 E6.08108
G1 X162.157 Y148.026 E6.08825
G1 X161.514 Y148.709 E6.11945
G1 X160.815 Y149.334 E6.15063
G1 X159.849 Y150.042 E6.19047
G1 X159.567 Y150.226 E6.20167
G1 X159.205 Y150.453 E6.21588
G1 X158.382 Y150.904 E6.24709
G1 X157.281 Y151.375 E6.28692
G1 X157.089 Y151.445 E6.29372
G1 X156.771 Y151.555 E6.30491
G1 X156.553 Y151.627 E6.31255
G1 X155.637 Y151.886 E6.34421
G1 X155.392 Y151.944 E6.35258
G1 X154.355 Y152.138 E6.38767
G1 X154.042 Y152.181 E6.39818
G1 X152.65 Y152.283 E6.4446
G1 X152.124 Y152.287 E6.4621
G1 X108.82 Y152.284 E7.90239
G1 X68.403 Y152.283 E9.24667
G1 X67.705 Y152.273 E9.26989
G1 X67.077 Y152.246 E9.29079
G1 X66.742 Y152.222 E9.30196
G1 X66.422 Y152.194 E9.31265
G1 X66.234 Y152.175 E9.31893
G1 X65.264 Y152.033 E9.35154
G1 X64.879 Y151.959 E9.36458
G1 X64.573 Y151.896 E9.37497
G1 X64.271 Y151.829 E9.38526
G1 X63.364 Y151.587 E9.41648
G1 X62.482 Y151.269 E9.44767
G1 X61.63 Y150.876 E9.47887
G1 X60.815 Y150.413 E9.51005
G1 X60.259 Y150.041 E9.5323
G1 X59.713 Y149.651 E9.55462
G1 X58.974 Y149.074 E9.5858
G1 X58.287 Y148.436 E9.61698
G1 X57.579 Y147.648 E9.65222
G1 X57.359 Y147.378 E9.6638
G1 X56.799 Y146.627 E9.69496
G1 X56.254 Y145.74 E9.72958
G1 X56.141 Y145.535 E9.73737
G1 X55.723 Y144.695 E9.76858
G1 X55.379 Y143.823 E9.79975
G1 X55.117 Y142.951 E9.83004
G1 X54.984 Y142.431 E9.84789
G1 X54.802 Y141.583 E9.87674
G1 X54.767 Y141.381 E9.88356
G1 X54.647 Y140.451 E9.91474
G1 X54.613 Y139.908 E9.93284
G1 X54.607 Y139.745 E9.93826
G1 X54.601 Y139.449 E9.94811
G1 X54.596 Y138.938 E9.96511
G1 X54.597 Y81 E11.89213
G1 X54.607 Y80.351 E11.91372
G1 X54.662 Y79.414 E11.94494
G1 X54.86 Y78.168 E11.9869
G1 X54.978 Y77.629 E12.00525
G1 X55.062 Y77.275 E12.01736
G1 X55.129 Y77.011 E12.02641
G1 X55.398 Y76.113 E12.05759
G1 X55.743 Y75.241 E12.08878
G1 X56.161 Y74.401 E12.11999
G1 X56.649 Y73.6 E12.15119
G1 X56.972 Y73.143 E12.1698
G1 X57.136 Y72.923 E12.17893
G1 X57.326 Y72.675 E12.18932
G1 X57.511 Y72.441 E12.19924
G1 X58.124 Y71.731 E12.23044
G1 X58.794 Y71.075 E12.26162
G0 F6000 X59.087 Y71.35
G1 F1200 X60.05 Y70.587 E12.30249
G1 X60.533 Y70.248 E12.32212
G1 X61.558 Y69.612 E12.36224
G1 X62.385 Y69.207 E12.39286
G1 X63.243 Y68.875 E12.42346
G1 X64.267 Y68.586 E12.45885
G1 X64.734 Y68.479 E12.47479
G1 X65.15 Y68.392 E12.48892
G1 X65.369 Y68.351 E12.49633
G1 X66.432 Y68.207 E12.53201
G1 X66.896 Y68.168 E12.5475
G1 X67.212 Y68.146 E12.55803
G1 X67.566 Y68.13 E12.56982
G1 X67.885 Y68.121 E12.58043
G1 X68.184 Y68.117 E12.59038
G1 X151.971 Y68.114 E15.37715
G1 X152.849 Y68.125 E15.40635
G1 X153.768 Y68.178 E15.43697
G1 X154.289 Y68.243 E15.45443
G1 X155.245 Y68.427 E15.48681
G1 X155.856 Y68.574 E15.50771
G1 X156.741 Y68.828 E15.53834
G1 X157.601 Y69.158 E15.56897
G1 X158.429 Y69.561 E15.5996
G1 X159.218 Y70.035 E15.63022
G1 X159.964 Y70.575 E15.66085
G1 X160.546 Y71.072 E15.6863
G1 X160.839 Y71.341 E15.69953
G1 X161.481 Y71.952 E15.72901
G1 X162.119 Y72.616 E15.75964
G1 X162.826 Y73.513 E15.79762
G1 X162.957 Y73.699 E15.80519
G1 X163.454 Y74.474 E15.83581
G1 X163.882 Y75.29 E15.86646
G1 X164.238 Y76.139 E15.89708
G1 X164.53 Y77.06 E15.92921
G1 X164.586 Y77.269 E15.93641
G1 X164.736 Y77.908 E15.95824
G1 X164.806 Y78.241 E15.96956
G1 X164.962 Y79.148 E16.00017
G1 X165.039 Y80.082 E16.03134
G1 X165.049 Y80.422 E16.04265
G1 X165.057 Y81.061 E16.06391
G1 X165.065 Y83.344 E16.13984
G1 X165.059 Y84.396 E16.17483
G1 X165.048 Y98.906 E16.65744
G1 X165.055 Y100.098 E16.69708
G1 X165.067 Y101.124 E16.73121
G1 X165.067 Y101.374 E16.73952
G1 X165.054 Y102.505 E16.77714
G1 X165.048 Y103.604 E16.8137
G1 X165.048 Y116.581 E17.24531
G1 X165.063 Y117.643 E17.28064
G1 X165.068 Y118.803 E17.31922
G1 X165.062 Y138.912 E17.98805
G1 X165.058 Y139.193 E17.9974
G1 X165.042 Y139.791 E18.01729
G1 X164.978 Y140.709 E18.0479
G1 X164.843 Y141.572 E18.07695
G1 X164.787 Y141.854 E18.08652
G1 X164.732 Y142.113 E18.09532
G1 X164.663 Y142.42 E18.10579
G1 X164.422 Y143.309 E18.13642
G1 X163.927 Y144.579 E18.18176
G1 X163.815 Y144.819 E18.19057
G1 X163.389 Y145.635 E18.22118
G1 X162.966 Y146.309 E18.24765
G1 X162.79 Y146.567 E18.25804
G1 X162.555 Y146.898 E18.27154
G1 X162.501 Y146.971 E18.27456
G1 X161.996 Y147.602 E18.30144
G1 X161.855 Y147.765 E18.30861
G1 X161.223 Y148.434 E18.33922
G1 X160.535 Y149.046 E18.36985
G1 X159.63 Y149.707 E18.40712
G1 X159.348 Y149.891 E18.41832
G1 X158.998 Y150.111 E18.43207
G1 X158.19 Y150.552 E18.46269
G1 X157.144 Y150.999 E18.50052
G1 X156.952 Y151.069 E18.50732
G1 X156.645 Y151.175 E18.51812
G1 X156.427 Y151.247 E18.52575
G1 X155.545 Y151.497 E18.55625
G1 X155.3 Y151.555 E18.56462
G1 X154.301 Y151.741 E18.59842
G1 X153.988 Y151.784 E18.60893
G1 X152.646 Y151.883 E18.65368
G1 X152.124 Y151.887 E18.67104
G1 X108.82 Y151.884 E20.11134
G1 X68.409 Y151.883 E21.45542
G1 X67.711 Y151.873 E21.47863
G1 X67.106 Y151.847 E21.49878
G1 X66.771 Y151.823 E21.50995
G1 X66.462 Y151.796 E21.52026
G1 X66.274 Y151.777 E21.52655
G1 X65.339 Y151.64 E21.55798
G1 X64.954 Y151.566 E21.57102
G1 X64.659 Y151.505 E21.58104
G1 X64.357 Y151.438 E21.59133
G1 X63.468 Y151.2 E21.62193
G1 X62.603 Y150.886 E21.65254
G1 X61.768 Y150.497 E21.68318
G1 X60.97 Y150.038 E21.7138
G1 X60.492 Y149.716 E21.73297
G1 X59.946 Y149.326 E21.75528
G1 X59.221 Y148.758 E21.78592
G1 X58.547 Y148.13 E21.81656
G1 X57.89 Y147.396 E21.84932
G1 X57.67 Y147.126 E21.86091
G1 X57.12 Y146.387 E21.89155
G1 X56.604 Y145.547 E21.92433
G1 X56.491 Y145.342 E21.93212
G1 X56.082 Y144.517 E21.96275
G1 X55.746 Y143.66 E21.99336
G1 X55.505 Y142.852 E22.02141
G1 X55.372 Y142.332 E22.03926
G1 X55.197 Y141.515 E22.06705
G1 X55.162 Y141.313 E22.07387
G1 X55.044 Y140.4 E22.10449
G1 X55.013 Y139.893 E22.12138
G1 X55.007 Y139.73 E22.12681
G1 X55.001 Y139.445 E22.13629
G1 X54.996 Y138.938 E22.15315
G1 X54.997 Y81.006 E24.07998
G1 X55.007 Y80.357 E24.10157
G1 X55.061 Y79.438 E24.13218
G1 X55.251 Y78.253 E24.1721
G1 X55.369 Y77.714 E24.19045
G1 X55.45 Y77.374 E24.20208
G1 X55.517 Y77.11 E24.21114
G1 X55.782 Y76.228 E24.24177
G1 X56.122 Y75.372 E24.2724
G1 X56.536 Y74.55 E24.30301
G1 X57.019 Y73.766 E24.33364
G1 X57.292 Y73.382 E24.34931
G1 X57.456 Y73.162 E24.35844
G1 X57.64 Y72.923 E24.36847
G1 X57.825 Y72.689 E24.37839
G1 X58.427 Y71.992 E24.40902
G1 X59.087 Y71.35 E24.43965
G0 F6000 X59.378 Y71.626
G1 F1200 X60.28 Y70.914 E24.47787
G1 X60.763 Y70.575 E24.49749
G1 X61.75 Y69.963 E24.53612
G1 X62.561 Y69.567 E24.56614
G1 X63.404 Y69.243 E24.59618
G1 X64.356 Y68.976 E24.62906
G1 X64.823 Y68.869 E24.645
G1 X65.224 Y68.785 E24.65862
G1 X65.443 Y68.744 E24.66603
G1 X66.466 Y68.606 E24.70037
G1 X67.156 Y68.55 E24.72339
G1 X67.577 Y68.53 E24.73741
G1 X67.896 Y68.521 E24.74803
G1 X68.184 Y68.517 E24.75761
G1 X151.971 Y68.514 E27.54437
G1 X152.843 Y68.525 E27.57338
G1 X154.169 Y68.63 E27.61762
G1 X154.231 Y68.639 E27.6197
G1 X155.152 Y68.816 E27.65089
G1 X155.763 Y68.963 E27.6718
G1 X156.631 Y69.213 E27.70184
G1 X157.473 Y69.539 E27.73187
G1 X158.283 Y69.938 E27.7619
G1 X159.055 Y70.407 E27.79195
G1 X159.782 Y70.942 E27.82197
G1 X160.275 Y71.366 E27.8436
G1 X160.568 Y71.635 E27.85683
G1 X161.205 Y72.241 E27.88607
G1 X161.83 Y72.893 E27.91611
G1 X162.499 Y73.744 E27.95211
G1 X162.63 Y73.93 E27.95968
G1 X163.117 Y74.69 E27.9897
G1 X163.535 Y75.491 E28.01975
G1 X163.88 Y76.326 E28.0498
G1 X164.143 Y77.163 E28.07898
G1 X164.199 Y77.372 E28.08618
G1 X164.344 Y77.988 E28.10723
G1 X164.415 Y78.326 E28.11871
G1 X164.567 Y79.216 E28.14874
G1 X164.639 Y80.097 E28.17814
G1 X164.649 Y80.427 E28.18912
G1 X164.657 Y81.061 E28.21021
G1 X164.665 Y83.342 E28.28608
G1 X164.659 Y84.394 E28.32107
G1 X164.648 Y98.906 E28.80374
G1 X164.655 Y100.1 E28.84345
G1 X164.667 Y101.129 E28.87768
G1 X164.667 Y101.369 E28.88566
G1 X164.654 Y102.503 E28.92338
G1 X164.648 Y103.602 E28.95994
G1 X164.648 Y116.587 E29.39182
G1 X164.663 Y117.645 E29.42701
G1 X164.668 Y118.803 E29.46553
G1 X164.662 Y138.912 E30.13436
G1 X164.658 Y139.182 E30.14334
G1 X164.642 Y139.78 E30.16323
G1 X164.578 Y140.681 E30.19328
G1 X164.451 Y141.494 E30.22064
G1 X164.395 Y141.776 E30.23021
G1 X164.342 Y142.026 E30.23871
G1 X164.273 Y142.333 E30.24917
G1 X164.036 Y143.204 E30.2792
G1 X163.564 Y144.409 E30.32224
G1 X163.452 Y144.649 E30.33105
G1 X163.034 Y145.45 E30.3611
G1 X162.635 Y146.084 E30.38601
G1 X162.459 Y146.342 E30.3964
G1 X162.179 Y146.733 E30.4124
G1 X161.693 Y147.34 E30.43826
G1 X161.552 Y147.503 E30.44543
G1 X160.932 Y148.159 E30.47545
G1 X160.256 Y148.758 E30.50549
G1 X159.412 Y149.372 E30.5402
G1 X159.13 Y149.556 E30.5514
G1 X158.791 Y149.768 E30.5647
G1 X157.998 Y150.201 E30.59475
G1 X157.007 Y150.623 E30.63058
G1 X156.815 Y150.693 E30.63737
G1 X156.52 Y150.795 E30.64776
G1 X156.302 Y150.867 E30.65539
G1 X155.453 Y151.108 E30.68475
G1 X155.208 Y151.166 E30.69312
G1 X154.246 Y151.345 E30.72567
G1 X153.933 Y151.388 E30.73617
G1 X152.642 Y151.483 E30.77923
G1 X152.124 Y151.487 E30.79646
G1 X108.82 Y151.484 E32.23675
G1 X68.415 Y151.483 E33.58063
G1 X67.717 Y151.473 E33.60385
G1 X67.134 Y151.448 E33.62326
G1 X66.799 Y151.424 E33.63443
G1 X66.502 Y151.398 E33.64434
G1 X66.314 Y151.379 E33.65063
G1 X65.415 Y151.248 E33.68084
G1 X65.03 Y151.174 E33.69388
G1 X64.746 Y151.115 E33.70353
G1 X64.444 Y151.048 E33.71382
G1 X63.572 Y150.813 E33.74386
G1 X62.724 Y150.503 E33.77389
G1 X61.906 Y150.118 E33.80396
G1 X61.127 Y149.663 E33.83396
G1 X60.724 Y149.39 E33.85015
G1 X60.178 Y149 E33.87247
G1 X59.467 Y148.443 E33.90251
G1 X58.809 Y147.826 E33.93251
G1 X58.2 Y147.143 E33.96295
G1 X57.98 Y146.873 E33.97453
G1 X57.441 Y146.148 E34.00458
G1 X56.954 Y145.354 E34.03556
G1 X56.841 Y145.149 E34.04335
G1 X56.441 Y144.34 E34.07336
G1 X56.113 Y143.498 E34.10342
G1 X55.892 Y142.752 E34.12929
G1 X55.759 Y142.232 E34.14715
G1 X55.591 Y141.446 E34.17388
G1 X55.556 Y141.244 E34.1807
G1 X55.441 Y140.349 E34.21071
G1 X55.413 Y139.878 E34.2264
G1 X55.407 Y139.715 E34.23183
G1 X55.401 Y139.441 E34.24094
G1 X55.396 Y138.938 E34.25768
G1 X55.397 Y81.012 E36.1843
G1 X55.407 Y80.363 E36.20589
G1 X55.461 Y79.461 E36.23594
G1 X55.642 Y78.339 E36.27375
G1 X55.76 Y77.8 E36.2921
G1 X55.837 Y77.472 E36.3033
G1 X55.904 Y77.208 E36.31236
G1 X56.165 Y76.343 E36.34241
G1 X56.501 Y75.505 E36.37244
G1 X56.91 Y74.7 E36.40247
G1 X57.613 Y73.621 E36.44531
G1 X57.777 Y73.401 E36.45443
G1 X57.954 Y73.171 E36.46409
G1 X58.139 Y72.937 E36.47401
G1 X58.729 Y72.254 E36.50403
G1 X59.378 Y71.626 E36.53406
G1 F2700 E31.53406
;MESH:raspberry_case_top.stl
G0 F6000 X70.895 Y127.444
G0 X70.439 Y126.044
G0 X69.658 Y127.149
G0 X69.395 Y127.665
G0 X69.306 Y128.234
G0 X69.395 Y128.803
G0 X69.658 Y129.319
G0 X70.066 Y129.727
G0 X70.483 Y129.939
G0 X71.802 Y130.241
;TYPE:WALL-INNER
G1 F2700 E36.53406
G1 F1200 X72.391 Y129.942 E36.55603
G1 X72.859 Y129.474 E36.57805
G1 X73.158 Y128.885 E36.60002
G1 X73.26 Y128.234 E36.62193
G1 X73.158 Y127.583 E36.64385
G1 X72.859 Y126.994 E36.66582
G1 X72.391 Y126.526 E36.68783
G1 X71.803 Y126.227 E36.70977
G1 X71.151 Y126.123 E36.73173
G1 X70.499 Y126.227 E36.75369
G1 X69.911 Y126.526 E36.77563
G1 X69.443 Y126.994 E36.79765
G1 X69.144 Y127.583 E36.81962
G1 X69.042 Y128.234 E36.84153
G1 X69.144 Y128.885 E36.86345
G1 X69.443 Y129.474 E36.88542
G1 X69.911 Y129.942 E36.90743
G1 X70.5 Y130.241 E36.9294
G1 X71.151 Y130.343 E36.95132
G1 X71.802 Y130.241 E36.97323
G0 F6000 X71.677 Y129.856
;TYPE:WALL-OUTER
G1 F1200 X72.153 Y129.614 E36.991
G1 X72.531 Y129.236 E37.00878
G1 X72.773 Y128.76 E37.02654
G1 X72.855 Y128.234 E37.04424
G1 X72.773 Y127.708 E37.06195
G1 X72.531 Y127.232 E37.07971
G1 X72.153 Y126.854 E37.09749
G1 X71.678 Y126.612 E37.11522
G1 X71.151 Y126.528 E37.13297
G1 X70.624 Y126.612 E37.15072
G1 X70.149 Y126.854 E37.16845
G1 X69.771 Y127.232 E37.18623
G1 X69.529 Y127.708 E37.20399
G1 X69.447 Y128.234 E37.22169
G1 X69.529 Y128.76 E37.2394
G1 X69.771 Y129.236 E37.25716
G1 X70.149 Y129.614 E37.27494
G1 X70.625 Y129.856 E37.2927
G1 X71.151 Y129.938 E37.31041
G1 X71.677 Y129.856 E37.32811
G0 F6000 X71.812 Y130.274
G1 F2700 E32.32811
G0 F6000 X72.283 Y129.733
G0 X73.453 Y128.234
G0 X71.981 Y128.234
G0 X76.231 Y89.169
G0 X76.175 Y90.624
G0 X129.17 Y90.344
;TYPE:WALL-INNER
G1 F2700 E37.32811
G1 F1200 X129.798 Y90.14 E37.35008
G1 X130.375 Y89.827 E37.37191
G1 X130.88 Y89.418 E37.39352
G1 X131.087 Y89.175 E37.40414
G1 X131.301 Y88.917 E37.41529
G1 X131.612 Y88.354 E37.43668
G1 X131.805 Y87.741 E37.45806
G1 X131.866 Y87.133 E37.47838
G1 X131.867 Y86.273 E37.50698
G1 X131.806 Y85.669 E37.52718
