;FLAVOR:Marlin
;TIME:10097
;Filament used: 6.41718m
;Layer height: 0.2
;MINX:47.402
;MINY:64.058
;MINZ:0.2
;MAXX:172.984
;MAXY:156.383
;MAXZ:14.4
;Generated with Cura_SteamEngine 4.8.0
M140 S50
M105
M190 S50
M104 S200
M105
M109 S200
M82 ;absolute extrusion mode
M201 X500.00 Y500.00 Z100.00 E5000.00 ;Setup machine max acceleration
M203 X500.00 Y500.00 Z10.00 E50.00 ;Setup machine max feedrate
M204 P500.00 R1000.00 T500.00 ;Setup Print/Retract/Travel acceleration
M205 X8.00 Y8.00 Z0.40 E5.00 ;Setup Jerk
M220 S100 ;Reset Feedrate
M221 S100 ;Reset Flowrate

G28 ;Home
M420 S1 Z2 ;Enable ABL using saved Mesh and Fade Height

G92 E0 ;Reset Extruder
G1 Z2.0 F3000 ;Move Z Axis up
G1 X10.1 Y20 Z0.28 F5000.0 ;Move to start position
G1 X10.1 Y200.0 Z0.28 F1500.0 E15 ;Draw the first line
G1 X10.4 Y200.0 Z0.28 F5000.0 ;Move to side a little
G1 X10.4 Y20 Z0.28 F1500.0 E30 ;Draw the second line
G92 E0 ;Reset Extruder
G1 Z2.0 F3000 ;Move Z Axis up

G92 E0
G92 E0
G1 F2700 E-5
;LAYER_COUNT:72
;LAYER:0
M107
G0 F6000 X64.781 Y67.828 Z0.2
;TYPE:SKIRT
G1 F2700 E0
G1 F1200 X65.684 Y67.047 E0.03971
G1 X65.922 Y66.863 E0.04971
G1 X66.189 Y66.663 E0.06081
G1 X66.364 Y66.536 E0.068
G1 X66.928 Y66.153 E0.09068
G1 X67.738 Y65.681 E0.12186
G1 X68.35 Y65.383 E0.1445
G1 X68.79 Y65.185 E0.16055
G1 X69.189 Y65.014 E0.17498
G1 X70.071 Y64.694 E0.20619
G1 X71.314 Y64.379 E0.24884
G1 X71.789 Y64.288 E0.26493
G1 X72.193 Y64.219 E0.27856
G1 X72.317 Y64.2 E0.28273
G1 X73.249 Y64.098 E0.31391
G1 X73.803 Y64.074 E0.33236
G1 X74.779 Y64.058 E0.36482
G1 X158.951 Y64.059 E3.1644
G1 X159.565 Y64.068 E3.18482
G1 X160.253 Y64.1 E3.20773
G1 X160.757 Y64.139 E3.22454
G1 X161.688 Y64.251 E3.25573
G1 X162.918 Y64.526 E3.29765
G1 X163.28 Y64.629 E3.31017
G1 X163.548 Y64.709 E3.31947
G1 X163.737 Y64.768 E3.32605
G1 X164.619 Y65.085 E3.35723
G1 X165.851 Y65.68 E3.40273
G1 X166.244 Y65.901 E3.41773
G1 X166.564 Y66.088 E3.43006
G1 X167.349 Y66.6 E3.46123
G1 X168.366 Y67.424 E3.50476
G1 X168.747 Y67.772 E3.52192
G1 X169.097 Y68.105 E3.53799
G1 X169.738 Y68.791 E3.56922
G1 X170.489 Y69.774 E3.61036
G1 X170.698 Y70.082 E3.62274
G1 X171.044 Y70.626 E3.64419
G1 X171.168 Y70.834 E3.65224
G1 X171.614 Y71.66 E3.68346
G1 X171.963 Y72.457 E3.7124
G1 X172.055 Y72.692 E3.7208
G1 X172.211 Y73.116 E3.73582
G1 X172.301 Y73.377 E3.745
G1 X172.569 Y74.276 E3.77621
G1 X172.742 Y75.092 E3.80395
G1 X172.771 Y75.26 E3.80962
G1 X172.874 Y76.014 E3.83493
G1 X172.918 Y76.445 E3.84934
G1 X172.974 Y77.416 E3.88169
G1 X172.984 Y78.238 E3.90903
G1 X172.983 Y136.002 E5.83027
G1 X172.972 Y136.738 E5.85475
G1 X172.923 Y137.624 E5.88427
G1 X172.895 Y137.916 E5.89402
G1 X172.848 Y138.325 E5.90771
G1 X172.829 Y138.467 E5.91248
G1 X172.731 Y139.071 E5.93283
G1 X172.693 Y139.27 E5.93957
G1 X172.478 Y140.183 E5.97077
G1 X172.279 Y140.818 E5.9929
G1 X172.189 Y141.077 E6.00202
G1 X172.047 Y141.463 E6.0157
G1 X171.778 Y142.104 E6.03882
G1 X171.667 Y142.347 E6.04771
G1 X171.093 Y143.436 E6.08865
G1 X171.045 Y143.516 E6.09175
G1 X170.702 Y144.052 E6.11292
G1 X170.55 Y144.275 E6.12189
G1 X170.197 Y144.764 E6.14195
G1 X170.096 Y144.896 E6.14748
G1 X169.495 Y145.616 E6.17867
G1 X168.997 Y146.129 E6.20245
G1 X168.827 Y146.293 E6.21031
G1 X168.627 Y146.481 E6.21944
G1 X168.421 Y146.67 E6.22874
G1 X167.703 Y147.274 E6.25995
G1 X166.635 Y148.002 E6.30294
G1 X166.301 Y148.202 E6.31588
G1 X166.017 Y148.367 E6.32681
G1 X165.856 Y148.457 E6.33294
G1 X165.019 Y148.879 E6.36412
G1 X163.859 Y149.326 E6.40547
G1 X163.452 Y149.457 E6.41969
G1 X163.08 Y149.57 E6.43262
G1 X162.78 Y149.654 E6.44298
G1 X160.222 Y150.346 E6.53112
G1 X157.807 Y151.072 E6.61499
G1 X155.392 Y151.875 E6.69964
G1 X153.066 Y152.72 E6.78195
G1 X150.743 Y153.641 E6.86506
G1 X147.306 Y155.141 E6.98979
G1 X146.8 Y155.373 E7.00831
G1 X145.932 Y155.727 E7.03948
G1 X145.036 Y156.006 E7.0707
G1 X144.12 Y156.207 E7.10189
G1 X143.19 Y156.33 E7.13309
G1 X142.589 Y156.367 E7.15312
G1 X142.204 Y156.377 E7.16593
G1 X141.661 Y156.383 E7.18399
G1 X92.199 Y156.381 E8.8291
G1 X91.537 Y156.371 E8.85112
G1 X91.184 Y156.351 E8.86288
G1 X90.601 Y156.317 E8.8823
G1 X90.164 Y156.264 E8.89694
G1 X89.882 Y156.213 E8.90648
G1 X89.529 Y156.15 E8.9184
G1 X89.241 Y156.098 E8.92814
G1 X88.822 Y155.986 E8.94256
G1 X88.335 Y155.855 E8.95933
G1 X87.261 Y155.453 E8.99748
G1 X86.724 Y155.219 E9.01696
G1 X85.061 Y154.467 E9.07766
G1 X82.773 Y153.51 E9.16015
G1 X80.376 Y152.584 E9.24562
G1 X78.07 Y151.773 E9.32692
G1 X75.633 Y150.989 E9.41207
G1 X73.21 Y150.283 E9.49601
G1 X71.63 Y149.864 E9.55037
G1 X70.661 Y149.615 E9.58365
G1 X69.764 Y149.343 E9.61483
G1 X69.203 Y149.129 E9.6348
G1 X68.934 Y149.018 E9.64448
G1 X68.65 Y148.896 E9.65476
G1 X68.428 Y148.797 E9.66284
G1 X67.588 Y148.379 E9.69405
G1 X66.469 Y147.67 E9.73811
G1 X66.059 Y147.374 E9.75493
G1 X65.315 Y146.786 E9.78647
G1 X65.148 Y146.642 E9.7938
G1 X64.666 Y146.194 E9.81569
G1 X62.732 Y144.354 E9.90447
G1 X60.874 Y142.681 E9.98763
G1 X58.923 Y141.021 E10.07283
G1 X56.99 Y139.468 E10.1553
G1 X54.94 Y137.916 E10.24082
G1 X53.839 Y137.121 E10.28599
G1 X53.597 Y136.941 E10.29602
G1 X53.189 Y136.629 E10.31311
G1 X52.469 Y136.028 E10.3443
G1 X51.803 Y135.368 E10.37549
G1 X51.195 Y134.653 E10.4067
G1 X50.798 Y134.111 E10.42905
G1 X50.253 Y133.316 E10.46111
G1 X50.068 Y133.037 E10.47224
G1 X49.785 Y132.596 E10.48967
G1 X49.366 Y131.886 E10.51709
G1 X49.16 Y131.489 E10.53196
G1 X48.959 Y131.082 E10.54706
G1 X48.756 Y130.648 E10.563
G1 X48.596 Y130.285 E10.57619
G1 X48.34 Y129.651 E10.59893
G1 X48.171 Y129.168 E10.61595
G1 X48.097 Y128.94 E10.62393
G1 X47.965 Y128.503 E10.63911
G1 X47.934 Y128.392 E10.64294
G1 X47.808 Y127.895 E10.66
G1 X47.76 Y127.686 E10.66713
G1 X47.683 Y127.324 E10.67944
G1 X47.662 Y127.216 E10.6831
G1 X47.539 Y126.431 E10.70952
G1 X47.486 Y125.991 E10.72426
G1 X47.424 Y125.286 E10.7478
G1 X47.417 Y125.16 E10.752
G1 X47.402 Y124.357 E10.77871
G1 X47.412 Y123.786 E10.79771
G1 X47.474 Y122.794 E10.83077
G1 X47.514 Y122.425 E10.84311
G1 X47.667 Y121.438 E10.87633
G1 X47.724 Y121.155 E10.88593
G1 X47.841 Y120.635 E10.90366
G1 X47.894 Y120.425 E10.91086
G1 X48.181 Y119.474 E10.9439
G1 X48.254 Y119.266 E10.95123
G1 X48.412 Y118.843 E10.96625
G1 X48.632 Y118.29 E10.98605
G1 X49.15 Y117.173 E11.027
G1 X49.674 Y116.192 E11.06399
G1 X50.149 Y115.336 E11.09655
G1 X51.295 Y113.126 E11.17935
G1 X52.391 Y110.86 E11.26307
G1 X53.433 Y108.538 E11.34772
G1 X54.385 Y106.249 E11.43018
G1 X55.301 Y103.861 E11.51524
G1 X56.127 Y101.494 E11.59863
G1 X56.882 Y99.128 E11.68123
G1 X57.591 Y96.671 E11.76628
G1 X58.21 Y94.268 E11.84882
G1 X58.777 Y91.782 E11.93363
G1 X59.265 Y89.324 E12.01697
G1 X59.683 Y86.847 E12.10052
G1 X60.034 Y84.349 E12.18442
G1 X60.308 Y81.883 E12.26695
G1 X60.522 Y79.304 E12.35302
G1 X60.643 Y77.158 E12.42451
G1 X60.661 Y76.769 E12.43746
G1 X60.744 Y75.835 E12.46865
G1 X60.901 Y74.932 E12.49914
G1 X60.964 Y74.642 E12.50901
G1 X61.097 Y74.097 E12.52766
G1 X61.167 Y73.839 E12.53656
G1 X61.451 Y72.945 E12.56775
G1 X61.893 Y71.904 E12.60537
G1 X62.115 Y71.448 E12.62224
G1 X62.308 Y71.07 E12.63635
G1 X62.779 Y70.259 E12.66755
G1 X63.558 Y69.187 E12.71162
G1 X63.783 Y68.914 E12.72339
G1 X63.994 Y68.666 E12.73422
G1 X64.134 Y68.506 E12.74129
G1 X64.781 Y67.828 E12.77246
G0 F6000 X65.07 Y68.104
G1 F1200 X65.929 Y67.364 E12.81017
G1 X66.167 Y67.18 E12.82018
G1 X66.424 Y66.987 E12.83087
G1 X66.599 Y66.86 E12.83806
G1 X67.144 Y66.49 E12.85997
G1 X67.939 Y66.027 E12.89057
G1 X68.514 Y65.748 E12.91182
G1 X68.954 Y65.55 E12.92787
G1 X69.342 Y65.384 E12.94191
G1 X70.207 Y65.07 E12.97251
G1 X71.39 Y64.772 E13.01309
G1 X71.865 Y64.681 E13.02918
G1 X72.254 Y64.614 E13.04231
G1 X72.378 Y64.595 E13.04648
G1 X73.293 Y64.495 E13.07709
G1 X73.809 Y64.474 E13.09427
G1 X74.785 Y64.458 E13.12673
G1 X158.945 Y64.459 E15.92591
G1 X159.559 Y64.468 E15.94633
G1 X160.222 Y64.499 E15.96841
G1 X160.726 Y64.538 E15.98522
G1 X161.64 Y64.648 E16.01584
G1 X162.809 Y64.911 E16.05569
G1 X163.171 Y65.014 E16.06821
G1 X163.429 Y65.091 E16.07717
G1 X163.618 Y65.15 E16.08375
G1 X164.484 Y65.462 E16.11437
G1 X165.655 Y66.029 E16.15764
G1 X166.048 Y66.25 E16.17264
G1 X166.36 Y66.432 E16.18465
G1 X167.13 Y66.936 E16.21526
G1 X168.097 Y67.719 E16.25664
G1 X168.478 Y68.067 E16.2738
G1 X168.817 Y68.391 E16.2894
G1 X169.445 Y69.064 E16.32002
G1 X170.158 Y69.999 E16.35913
G1 X170.367 Y70.307 E16.37151
G1 X170.701 Y70.831 E16.39217
G1 X170.825 Y71.039 E16.40023
G1 X171.261 Y71.85 E16.43085
G1 X171.591 Y72.603 E16.4582
G1 X171.683 Y72.838 E16.46659
G1 X171.833 Y73.246 E16.48105
G1 X171.923 Y73.507 E16.49023
G1 X172.185 Y74.39 E16.52087
G1 X172.348 Y75.16 E16.54704
G1 X172.377 Y75.328 E16.55271
G1 X172.476 Y76.054 E16.57708
G1 X172.52 Y76.485 E16.59149
G1 X172.574 Y77.421 E16.62268
G1 X172.584 Y78.238 E16.64985
G1 X172.583 Y135.996 E18.57089
G1 X172.572 Y136.732 E18.59537
G1 X172.525 Y137.586 E18.62382
G1 X172.497 Y137.878 E18.63358
G1 X172.451 Y138.272 E18.64677
G1 X172.432 Y138.414 E18.65154
G1 X172.338 Y138.996 E18.67114
G1 X172.3 Y139.195 E18.67788
G1 X172.088 Y140.091 E18.70851
G1 X171.901 Y140.686 E18.72925
G1 X171.811 Y140.945 E18.73837
G1 X171.673 Y141.32 E18.75166
G1 X171.414 Y141.938 E18.77395
G1 X171.303 Y142.181 E18.78283
G1 X170.75 Y143.231 E18.8223
G1 X170.702 Y143.311 E18.82541
G1 X170.372 Y143.827 E18.84578
G1 X170.22 Y144.05 E18.85475
G1 X169.879 Y144.521 E18.87409
G1 X169.778 Y144.653 E18.87962
G1 X169.188 Y145.36 E18.91025
G1 X168.719 Y145.841 E18.93259
G1 X168.549 Y146.005 E18.94045
G1 X168.356 Y146.187 E18.94927
G1 X168.15 Y146.376 E18.95857
G1 X167.445 Y146.968 E18.98919
G1 X166.43 Y147.659 E19.03003
G1 X166.096 Y147.859 E19.04298
G1 X165.822 Y148.017 E19.0535
G1 X165.661 Y148.107 E19.05963
G1 X164.839 Y148.521 E19.09025
G1 X163.737 Y148.945 E19.12952
G1 X163.33 Y149.076 E19.14374
G1 X162.971 Y149.185 E19.15622
G1 X162.676 Y149.268 E19.16641
G1 X160.108 Y149.962 E19.25489
G1 X157.671 Y150.695 E19.33953
G1 X155.278 Y151.491 E19.42341
G1 X152.919 Y152.348 E19.50688
G1 X150.604 Y153.266 E19.58971
G1 X147.137 Y154.779 E19.71553
G1 X146.633 Y155.01 E19.73397
G1 X145.781 Y155.356 E19.76456
G1 X144.901 Y155.628 E19.79519
G1 X144.001 Y155.822 E19.82581
G1 X143.088 Y155.937 E19.85642
G1 X142.576 Y155.967 E19.87348
G1 X142.2 Y155.977 E19.88599
G1 X141.661 Y155.983 E19.90392
G1 X92.205 Y155.981 E21.54883
G1 X91.543 Y155.971 E21.57085
G1 X90.927 Y155.935 E21.59137
G1 X90.624 Y155.917 E21.60147
G1 X90.246 Y155.862 E21.61417
G1 X89.884 Y155.817 E21.62631
G1 X88.983 Y155.625 E21.65695
G1 X88.103 Y155.355 E21.68756
G1 X87.42 Y155.086 E21.71198
G1 X86.889 Y154.854 E21.73125
G1 X85.231 Y154.105 E21.79176
G1 X82.935 Y153.145 E21.87453
G1 X80.526 Y152.214 E21.96043
G1 X78.165 Y151.383 E22.04368
G1 X75.772 Y150.613 E22.12729
G1 X73.297 Y149.892 E22.21303
G1 X71.683 Y149.464 E22.26857
G1 X70.761 Y149.227 E22.30023
G1 X69.88 Y148.96 E22.33085
G1 X69.356 Y148.76 E22.34951
G1 X69.087 Y148.649 E22.35918
G1 X68.813 Y148.531 E22.36911
G1 X68.591 Y148.432 E22.37719
G1 X67.767 Y148.021 E22.40782
G1 X66.703 Y147.345 E22.44974
G1 X66.293 Y147.049 E22.46656
G1 X65.576 Y146.483 E22.49695
G1 X65.409 Y146.339 E22.50428
G1 X64.942 Y145.904 E22.52551
G1 X63.01 Y144.066 E22.6142
G1 X61.12 Y142.364 E22.69879
G1 X59.209 Y140.738 E22.78225
G1 X57.232 Y139.149 E22.86661
G1 X55.161 Y137.582 E22.95299
G1 X54.073 Y136.796 E22.99763
G1 X53.84 Y136.623 E23.00728
G1 X53.432 Y136.311 E23.02436
G1 X52.726 Y135.721 E23.05497
G1 X52.073 Y135.071 E23.08561
G1 X51.48 Y134.367 E23.11623
G1 X51.128 Y133.885 E23.13608
G1 X50.583 Y133.09 E23.16814
G1 X50.405 Y132.821 E23.17886
G1 X50.122 Y132.38 E23.19629
G1 X49.718 Y131.695 E23.22274
G1 X49.519 Y131.312 E23.2371
G1 X49.318 Y130.905 E23.2522
G1 X49.122 Y130.486 E23.26758
G1 X48.962 Y130.123 E23.28078
G1 X48.716 Y129.512 E23.30268
G1 X48.552 Y129.044 E23.31918
G1 X48.478 Y128.816 E23.32715
G1 X48.351 Y128.395 E23.34178
G1 X48.32 Y128.284 E23.34561
G1 X48.198 Y127.806 E23.36202
G1 X48.15 Y127.597 E23.36915
G1 X48.055 Y127.139 E23.38471
G1 X47.936 Y126.384 E23.41013
G1 X47.883 Y125.944 E23.42487
G1 X47.823 Y125.264 E23.44757
G1 X47.816 Y125.138 E23.45177
G1 X47.802 Y124.364 E23.47752
G1 X47.812 Y123.793 E23.49651
G1 X47.872 Y122.837 E23.52837
G1 X47.912 Y122.468 E23.54072
G1 X48.059 Y121.517 E23.57272
G1 X48.116 Y121.234 E23.58232
G1 X48.229 Y120.733 E23.59941
G1 X48.282 Y120.523 E23.60661
G1 X48.558 Y119.607 E23.63843
G1 X48.631 Y119.399 E23.64576
G1 X48.784 Y118.991 E23.66025
G1 X49.004 Y118.438 E23.68005
G1 X49.503 Y117.362 E23.7195
G1 X50.027 Y116.381 E23.75649
G1 X50.496 Y115.535 E23.78866
G1 X51.653 Y113.305 E23.87222
G1 X52.758 Y111.02 E23.95664
G1 X53.79 Y108.719 E24.04052
G1 X54.769 Y106.366 E24.12528
G1 X55.676 Y103.999 E24.20959
G1 X56.503 Y101.632 E24.29298
G1 X57.272 Y99.223 E24.37709
G1 X57.968 Y96.809 E24.46065
G1 X58.601 Y94.352 E24.54504
G1 X59.165 Y91.877 E24.62947
G1 X59.658 Y89.397 E24.71357
G1 X60.079 Y86.903 E24.79769
G1 X60.429 Y84.412 E24.88136
G1 X60.71 Y81.889 E24.96579
G1 X60.919 Y79.361 E25.05016
G1 X61.046 Y77.108 E25.12521
G1 X61.061 Y76.787 E25.1359
G1 X61.142 Y75.87 E25.16652
G1 X61.292 Y75.017 E25.19533
G1 X61.355 Y74.727 E25.2052
G1 X61.483 Y74.201 E25.2232
G1 X61.553 Y73.943 E25.23209
G1 X61.832 Y73.066 E25.2627
G1 X62.252 Y72.079 E25.29838
G1 X62.474 Y71.623 E25.31525
G1 X62.662 Y71.256 E25.32896
G1 X63.125 Y70.46 E25.35959
G1 X63.867 Y69.441 E25.40151
G1 X64.092 Y69.168 E25.41328
G1 X64.295 Y68.93 E25.42369
G1 X64.435 Y68.77 E25.43076
G1 X65.07 Y68.104 E25.46136
G0 F6000 X65.36 Y68.381
G1 F1200 X66.173 Y67.68 E25.49707
G1 X66.411 Y67.496 E25.50707
G1 X66.659 Y67.311 E25.51736
G1 X66.834 Y67.184 E25.52456
G1 X67.359 Y66.827 E25.54567
G1 X68.141 Y66.374 E25.57573
G1 X68.678 Y66.112 E25.5956
G1 X69.118 Y65.914 E25.61165
G1 X69.494 Y65.754 E25.62524
G1 X70.344 Y65.447 E25.6553
G1 X71.465 Y65.165 E25.69375
G1 X71.94 Y65.074 E25.70983
G1 X72.314 Y65.01 E25.72245
G1 X72.438 Y64.991 E25.72663
G1 X73.336 Y64.894 E25.75667
G1 X73.816 Y64.874 E25.77265
G1 X74.792 Y64.858 E25.80511
G1 X158.939 Y64.859 E28.60385
G1 X159.553 Y64.868 E28.62428
G1 X160.191 Y64.897 E28.64552
G1 X160.695 Y64.936 E28.66233
G1 X161.591 Y65.046 E28.69236
G1 X162.699 Y65.295 E28.73013
G1 X163.061 Y65.398 E28.74265
G1 X163.309 Y65.472 E28.75125
G1 X163.498 Y65.531 E28.75784
G1 X164.348 Y65.838 E28.7879
G1 X165.459 Y66.377 E28.82897
G1 X165.852 Y66.598 E28.84396
G1 X166.155 Y66.775 E28.85564
G1 X166.911 Y67.27 E28.88569
G1 X167.827 Y68.015 E28.92496
G1 X168.208 Y68.363 E28.94212
G1 X168.537 Y68.676 E28.95723
G1 X169.152 Y69.337 E28.98726
G1 X169.827 Y70.224 E29.02433
G1 X170.036 Y70.532 E29.03671
G1 X170.357 Y71.036 E29.05658
G1 X170.481 Y71.244 E29.06464
G1 X170.909 Y72.039 E29.09467
G1 X171.218 Y72.749 E29.12042
G1 X171.31 Y72.984 E29.12882
G1 X171.455 Y73.377 E29.14275
G1 X171.545 Y73.638 E29.15193
G1 X171.801 Y74.504 E29.18197
G1 X171.953 Y75.228 E29.20657
G1 X171.982 Y75.396 E29.21224
G1 X172.078 Y76.095 E29.23571
G1 X172.122 Y76.526 E29.25012
G1 X172.174 Y77.426 E29.2801
G1 X172.184 Y78.238 E29.30711
G1 X172.183 Y135.99 E31.22795
G1 X172.172 Y136.726 E31.25243
G1 X172.126 Y137.548 E31.27982
G1 X172.098 Y137.84 E31.28957
G1 X172.055 Y138.219 E31.30226
G1 X172.036 Y138.361 E31.30702
G1 X171.945 Y138.921 E31.32589
G1 X171.907 Y139.12 E31.33263
G1 X171.698 Y139.999 E31.36268
G1 X171.523 Y140.555 E31.38207
G1 X171.433 Y140.814 E31.39119
G1 X171.299 Y141.177 E31.40406
G1 X171.05 Y141.772 E31.42551
G1 X170.939 Y142.015 E31.4344
G1 X170.407 Y143.025 E31.47237
G1 X170.359 Y143.105 E31.47547
G1 X170.041 Y143.602 E31.49509
